X: 1
T: Carnie's Canter
M: 4/4
L: 1/8
R: reel
K: Fmaj
|:Ac (3ccc dc^Bc|Ac^Bc fcBA|Bd (3ddd ed^cd|Bd^cd edcB|
Ac (3ccc dc^Bc|Ac^Bc fcBA|BABd g^fga|bagf edcB:|
|:Af (3fff cfAf|afef cfAf|Bg (3ggg dgBg|bagf edcB|
Af (3fff cfAf|afef cfAf|bgaf gefd|cBAG F2F2:|
